Adwaita++-Dark/actions/22/object-rotate-left.svg

<svg height="22" viewBox="0 0 22 22" width="22" xmlns="http://www.w3.org/2000/svg">
  <path d="m8.0292969.00195313-4 2.99999997 4 3v-2c2.2091001 0 4.0000001 1.7909 4.0000001 4 0 2.2090999-1.7909 3.9999999-4.0000001 3.9999999-2.2091 0-4-1.7909-4-3.9999999a1 1 0 0 0 -1-1 1 1 0 0 0 -1 1 1 1 0 0 0 .0058593.0996094c.0538001 3.2671995 2.7140407 5.9003905 5.9941407 5.9003905 3.3137001 0 6.0000001-2.6863 6.0000001-5.9999999 0-3.3137-2.6863-6-6.0000001-6z" fill="#e6ddff" transform="translate(3 3)"/>
</svg>

<svg xmlns="http://www.w3.org/2000/svg" width="22" height="22" viewBox="0 0 22 22">
 <defs>
  <style id="current-color-scheme" type="text/css">
   .ColorScheme-Text { color:#E6DDFF; } .ColorScheme-Highlight { color:#4285f4; }
  </style>
 </defs>
 <path style="fill:currentColor" class="ColorScheme-Text" d="M 8.0292969 0.001953125 L 4.0292969 3.0019531 L 8.0292969 6.0019531 L 8.0292969 4.0019531 C 10.238397 4.0019531 12.029297 5.7928531 12.029297 8.0019531 C 12.029297 10.211053 10.238397 12.001953 8.0292969 12.001953 C 5.8201969 12.001953 4.0292969 10.211053 4.0292969 8.0019531 A 1 1 0 0 0 3.0292969 7.0019531 A 1 1 0 0 0 2.0292969 8.0019531 A 1 1 0 0 0 2.0351562 8.1015625 C 2.0889563 11.368762 4.7491969 14.001953 8.0292969 14.001953 C 11.342997 14.001953 14.029297 11.315653 14.029297 8.0019531 C 14.029297 4.6882531 11.342997 2.0019531 8.0292969 2.0019531 L 8.0292969 0.001953125 z" transform="translate(3 3)"/>
</svg>
